assets/img/home/beneficios-1.svg

<svg xmlns="http://www.w3.org/2000/svg" xmlns:xlink="http://www.w3.org/1999/xlink" width="1080" zoomAndPan="magnify" viewBox="0 0 810 809.999993" height="1080" preserveAspectRatio="xMidYMid meet" version="1.0"><defs><clipPath id="5faeba0d3b"><path d="M 19.210938 220 L 499 220 L 499 790.960938 L 19.210938 790.960938 Z M 19.210938 220 " clip-rule="nonzero"/></clipPath><clipPath id="09a254986b"><path d="M 354 19.210938 L 790.960938 19.210938 L 790.960938 790.960938 L 354 790.960938 Z M 354 19.210938 " clip-rule="nonzero"/></clipPath></defs><g clip-path="url(#5faeba0d3b)"><path fill="#f1ae2b" d="M 304.355469 254.035156 C 165.402344 254.035156 52.757812 366.683594 52.757812 505.636719 C 52.757812 644.589844 165.402344 757.238281 304.355469 757.238281 C 368.175781 757.238281 426.414062 733.496094 470.773438 694.339844 C 477.71875 688.210938 488.320312 688.871094 494.449219 695.816406 C 500.582031 702.765625 499.921875 713.359375 492.972656 719.492188 C 442.714844 763.847656 376.664062 790.785156 304.355469 790.785156 C 146.875 790.785156 19.210938 663.117188 19.210938 505.636719 C 19.210938 348.15625 146.875 220.488281 304.355469 220.488281 C 347.78125 220.488281 388.984375 230.207031 425.867188 247.605469 C 434.246094 251.558594 437.832031 261.554688 433.878906 269.929688 C 429.929688 278.308594 419.933594 281.898438 411.554688 277.945312 C 379.054688 262.617188 342.730469 254.035156 304.355469 254.035156 Z M 304.355469 254.035156 " fill-opacity="1" fill-rule="evenodd"/></g><path fill="#f1ae2b" d="M 304.355469 321.128906 C 202.457031 321.128906 119.847656 403.734375 119.847656 505.636719 C 119.847656 607.539062 202.457031 690.144531 304.355469 690.144531 C 372.628906 690.144531 432.261719 653.070312 464.191406 597.875 C 468.828125 589.859375 479.085938 587.117188 487.109375 591.757812 C 495.125 596.398438 497.867188 606.65625 493.226562 614.675781 C 455.550781 679.808594 385.085938 723.691406 304.355469 723.691406 C 183.929688 723.691406 86.304688 626.066406 86.304688 505.636719 C 86.304688 385.207031 183.929688 287.582031 304.355469 287.582031 C 329.8125 287.582031 354.285156 291.953125 377.039062 299.996094 C 385.773438 303.082031 390.351562 312.664062 387.265625 321.398438 C 384.175781 330.132812 374.59375 334.710938 365.859375 331.625 C 346.644531 324.832031 325.953125 321.128906 304.355469 321.128906 Z M 304.355469 321.128906 " fill-opacity="1" fill-rule="evenodd"/><path fill="#f1ae2b" d="M 266.847656 404.996094 C 290.460938 393.191406 318.25 393.191406 341.863281 404.996094 L 378.949219 423.542969 C 387.238281 427.683594 390.59375 437.757812 386.453125 446.042969 C 382.308594 454.332031 372.234375 457.6875 363.949219 453.546875 L 326.859375 435 C 312.695312 427.917969 296.019531 427.917969 281.851562 435 L 267.6875 442.085938 C 259.320312 446.269531 254.035156 454.816406 254.035156 464.167969 C 254.035156 477.808594 265.089844 488.863281 278.730469 488.863281 L 329.984375 488.863281 C 362.148438 488.863281 388.222656 514.9375 388.222656 547.105469 C 388.222656 569.160156 375.761719 589.328125 356.027344 599.195312 L 341.863281 606.277344 C 318.25 618.082031 290.460938 618.082031 266.847656 606.277344 L 229.761719 587.730469 C 221.476562 583.589844 218.117188 573.515625 222.261719 565.230469 C 226.402344 556.941406 236.476562 553.585938 244.765625 557.726562 L 281.851562 576.273438 C 296.019531 583.355469 312.695312 583.355469 326.859375 576.273438 L 341.027344 569.1875 C 349.394531 565.003906 354.675781 556.457031 354.675781 547.105469 C 354.675781 533.464844 343.621094 522.410156 329.984375 522.410156 L 278.730469 522.410156 C 246.5625 522.410156 220.488281 496.335938 220.488281 464.167969 C 220.488281 442.113281 232.953125 421.945312 252.683594 412.078125 Z M 266.847656 404.996094 " fill-opacity="1" fill-rule="evenodd"/><path fill="#f1ae2b" d="M 304.355469 354.675781 C 313.621094 354.675781 321.128906 362.1875 321.128906 371.449219 L 321.128906 639.824219 C 321.128906 649.085938 313.621094 656.597656 304.355469 656.597656 C 295.09375 656.597656 287.582031 649.085938 287.582031 639.824219 L 287.582031 371.449219 C 287.582031 362.1875 295.09375 354.675781 304.355469 354.675781 Z M 304.355469 354.675781 " fill-opacity="1" fill-rule="evenodd"/><g clip-path="url(#09a254986b)"><path fill="#f1ae2b" d="M 572.730469 19.210938 C 578.339844 19.210938 583.574219 22.011719 586.683594 26.679688 L 787.964844 328.597656 C 791.398438 333.746094 791.714844 340.363281 788.796875 345.816406 C 785.878906 351.273438 780.195312 354.675781 774.011719 354.675781 L 680.996094 354.675781 L 680.996094 774.011719 C 680.996094 783.273438 673.484375 790.785156 664.222656 790.785156 L 484.671875 790.785156 C 475.40625 790.785156 467.898438 783.273438 467.898438 774.011719 L 467.898438 354.675781 L 371.449219 354.675781 C 365.265625 354.675781 359.582031 351.273438 356.664062 345.816406 C 353.742188 340.363281 354.0625 333.746094 357.496094 328.597656 L 558.773438 26.679688 C 561.882812 22.011719 567.121094 19.210938 572.730469 19.210938 Z M 402.792969 321.128906 L 484.671875 321.128906 C 493.933594 321.128906 501.441406 328.640625 501.441406 337.902344 L 501.441406 757.238281 L 647.449219 757.238281 L 647.449219 337.902344 C 647.449219 328.640625 654.957031 321.128906 664.222656 321.128906 L 742.667969 321.128906 L 572.730469 66.222656 Z M 402.792969 321.128906 " fill-opacity="1" fill-rule="evenodd"/></g></svg>

<svg xmlns="http://www.w3.org/2000/svg" width="1080" height="1080" version="1.0" viewBox="0 0 810 810">
  <defs>
    <clipPath id="a">
      <path d="M19.21 220H499v570.96H19.21Zm0 0"/>
    </clipPath>
    <clipPath id="b">
      <path d="M354 19.21h436.96v771.75H354Zm0 0"/>
    </clipPath>
  </defs>
  <g clip-path="url(#a)">
    <path fill="#f1ae2b" fill-rule="evenodd" d="M304.355 254.035c-138.953 0-251.597 112.649-251.597 251.602s112.644 251.601 251.597 251.601c63.82 0 122.06-23.742 166.418-62.898 6.946-6.13 17.547-5.469 23.676 1.476 6.133 6.95 5.473 17.543-1.476 23.676-50.258 44.356-116.309 71.293-188.618 71.293-157.48 0-285.144-127.668-285.144-285.148 0-157.48 127.664-285.149 285.144-285.149 43.426 0 84.63 9.719 121.512 27.117 8.38 3.954 11.965 13.95 8.012 22.325-3.95 8.379-13.945 11.968-22.324 8.015-32.5-15.328-68.825-23.91-107.2-23.91Zm0 0"/>
  </g>
  <path fill="#f1ae2b" fill-rule="evenodd" d="M304.355 321.129c-101.898 0-184.507 82.605-184.507 184.508 0 101.902 82.609 184.508 184.507 184.508 68.274 0 127.907-37.075 159.836-92.27 4.637-8.016 14.895-10.758 22.918-6.117 8.016 4.64 10.758 14.898 6.118 22.918C455.55 679.809 385.086 723.69 304.355 723.69c-120.425 0-218.05-97.625-218.05-218.054 0-120.43 97.625-218.055 218.05-218.055 25.457 0 49.93 4.371 72.684 12.414 8.734 3.086 13.313 12.668 10.227 21.402-3.09 8.735-12.672 13.313-21.407 10.227-19.214-6.793-39.906-10.496-61.504-10.496Zm0 0"/>
  <path fill="#f1ae2b" fill-rule="evenodd" d="M266.848 404.996a83.877 83.877 0 0 1 75.015 0l37.086 18.547c8.29 4.14 11.645 14.215 7.504 22.5-4.144 8.289-14.219 11.644-22.504 7.504L326.86 435a50.328 50.328 0 0 0-45.007 0l-14.164 7.086a24.689 24.689 0 0 0-13.653 22.082c0 13.64 11.055 24.695 24.695 24.695h51.254c32.164 0 58.239 26.075 58.239 58.242a58.24 58.24 0 0 1-32.196 52.09l-14.164 7.082a83.877 83.877 0 0 1-75.015 0l-37.086-18.547c-8.285-4.14-11.645-14.214-7.5-22.5 4.14-8.289 14.215-11.644 22.504-7.503l37.086 18.546a50.328 50.328 0 0 0 45.007 0l14.168-7.086a24.685 24.685 0 0 0 13.649-22.082c0-13.64-11.055-24.695-24.692-24.695H278.73c-32.168 0-58.242-26.074-58.242-58.242a58.247 58.247 0 0 1 32.196-52.09Zm0 0"/>
  <path fill="#f1ae2b" fill-rule="evenodd" d="M304.355 354.676c9.266 0 16.774 7.512 16.774 16.773v268.375c0 9.262-7.508 16.774-16.774 16.774-9.261 0-16.773-7.512-16.773-16.774V371.45c0-9.262 7.512-16.773 16.773-16.773Zm0 0"/>
  <g clip-path="url(#b)">
    <path fill="#f1ae2b" fill-rule="evenodd" d="M572.73 19.21c5.61 0 10.844 2.802 13.954 7.47l201.28 301.918a16.77 16.77 0 0 1 .833 17.218 16.764 16.764 0 0 1-14.785 8.86h-93.016v419.336c0 9.261-7.512 16.773-16.773 16.773H484.672c-9.266 0-16.774-7.512-16.774-16.773V354.676H371.45a16.764 16.764 0 0 1-14.785-8.86 16.762 16.762 0 0 1 .832-17.218L558.773 26.68a16.767 16.767 0 0 1 13.957-7.47ZM402.793 321.13h81.879c9.262 0 16.77 7.512 16.77 16.773v419.336h146.007V337.902c0-9.261 7.508-16.773 16.774-16.773h78.445L572.73 66.223Zm0 0"/>
  </g>
</svg>
